X: 0
T: Hark! The Full-Voiced Choir Is Singing
Z: Wm. Gowman
Z: Copyright © 2003 by Douglas D. Anderson
Z: Released To The Public Domain
L: 1/4
M: 6/8
Q: 1/4=90
V: P1 name="Staff"
%%MIDI program 1 19
K: G
[V: P1]  G A/ B G/ | d c/ (B3/4A/4) G/ | A A/ B d/ | c B/ (B A/) | G A/ B G/ | d c/ (B3/4A/4) G/ | A d/ B e/ | d ^c/ d3/ |"^Chorus" B c/ (B3/4A/4) G/ | d e/ (d3/4c/4) B/ | A A/ B d/ | (d/B/) G/ e3/ | d c/ (B3/4d/4) c/ | (B3/4c/4) A/ G3/|]
w: Hark! the full- voic’d Choir is sing-_ ing, As the mid- night dark- ness flies;_ Heaven- ly An- gels now are bring-_ ing Peace- ful tid- ings from the skies. Hail! O Je-_ sus! Hail! O Je-_ sus! Sun of Righ- teous ness,_ a- rise! Sun of Righ-_ teous ness_ a- rise!

